X:1
T:All People That Dwell on the Earth
T:All People That Dwell on the Earth
T:George Coles Stebbins, 1912
T:The Psalter, 1912
T:Public Domain Courtesy of the Cyber Hymnal™
C:George Coles Stebbins, 1912
Z:Public Domain
Z:Courtesy of the Cyber Hymnal™
%%score ( 1 2 ) 3
L:1/8
Q:1/4=130
M:3/4
K:F
V:1 treble 
V:2 treble 
V:3 bass 
V:1
 [Fc]2 | [Fc]2 [FB]2 [FA]2 | [EG]2 [CF]2 [CE]2 | [CF]6- | [CF]2 z2 [Fc]2 | [Af]2 [Ge]2 [Fd]2 | %6
w: 1.~All|peo- ple that|dwell on the|earth,|* Your|songs to Je-|
w: 2.~Know|ye that Je-|ho- vah is|God,|* Our|sov- ereign and|
w: 3.~With|thank- ful- ness|en- ter His|gates,|* His|praise in His|
w: 4.~For|gra- cious and|good is the|Lord,|* His|mer- cy to|
 [Gc]2 [FA]2 F2 | [EG]6- | [EG]2 z2 [FA]2 | [FB]2 [_EA]2 [DB]2 | [Dd]2 [_Ec]2 [DB]2 | [^CA]6- | %12
w: ho- vah now|raise;|* Come,|serve Him with|glad- ness and|joy,|
w: nak- er is|He;|* His|peo- ple, for-|ev- er His|own,|
w: tem- ple pro-|claim;|* Your|voic- es in|thanks- giv- ing|raise,|
w: us ne- ver|ends;|* His|faith- ful- ness,|true to His|word,|
 [CA]2 z2 [=CA]2 | [Dc]2 [DB]2 [DG]2 | [CF]2 [CE]2 [CG]2 | [CF]6- | [CF]2 z2 |] %17
w: * Ap-|proach Him with|an- thems of|praise.||
w: * The|sheep of His|pas- ture are|we.||
w: * And|bless ye His|glor- i- ous|name.||
w: * Through|ag- es un-|end- ing ex-|tends.||
V:2
 x2 | x6 | x6 | x6 | x6 | x6 | x4 F2 | x6 | x6 | x6 | x6 | x6 | x6 | x6 | x6 | x6 | x4 |] %17
V:3
 [F,A,]2 | [F,A,]2 [F,D]2 [F,C]2 | [C,B,]2 [C,A,]2 [C,G,]2 | [F,A,]6- | [F,A,]2 z2 [F,A,]2 | %5
 [F,C]2 [C,B,]2 [D,A,]2 | [E,C]2 [F,C]2 [A,,C]2 | [C,C]6- | [C,C]2 z2 [F,C]2 | %9
 [D,B,]2 [C,F,]2 [B,,F,]2 | [B,,F,]2 [A,,F,]2 [G,,G,]2 | [A,,E,]6- | [A,,E,]2 z2 [F,,F,]2 | %13
 [B,,F,]2 [B,,G,]2 [B,,B,]2 | [C,A,]2 [C,G,]2 [C,B,]2 | [F,A,]6- | [F,A,]2 z2 |] %17

